svg/editor/strikethrough_line.svg

<?xml version="1.0" encoding="UTF-8"?>
<svg width="24px" height="24px" viewBox="0 0 24 24" version="1.1" xmlns="http://www.w3.org/2000/svg" xmlns:xlink="http://www.w3.org/1999/xlink">
    <title>strikethrough_line</title>
    <g id="页面-1" stroke="none" stroke-width="1" fill="none" fill-rule="evenodd">
        <g id="Editor" transform="translate(-1008.000000, 0.000000)" fill-rule="nonzero">
            <g id="strikethrough_line" transform="translate(1008.000000, 0.000000)">
                 <path d="M24,0 L24,24 L0,24 L0,0 L24,0 Z M12.5934901,23.257841 L12.5819402,23.2595131 L12.5108777,23.2950439 L12.4918791,23.2987469 L12.4918791,23.2987469 L12.4767152,23.2950439 L12.4056548,23.2595131 C12.3958229,23.2563662 12.3870493,23.2590235 12.3821421,23.2649074 L12.3780323,23.275831 L12.360941,23.7031097 L12.3658947,23.7234994 L12.3769048,23.7357139 L12.4804777,23.8096931 L12.4953491,23.8136134 L12.4953491,23.8136134 L12.5071152,23.8096931 L12.6106902,23.7357139 L12.6232938,23.7196733 L12.6232938,23.7196733 L12.6266527,23.7031097 L12.609561,23.275831 C12.6075724,23.2657013 12.6010112,23.2592993 12.5934901,23.257841 L12.5934901,23.257841 Z M12.8583906,23.1452862 L12.8445485,23.1473072 L12.6598443,23.2396597 L12.6498822,23.2499052 L12.6498822,23.2499052 L12.6471943,23.2611114 L12.6650943,23.6906389 L12.6699349,23.7034178 L12.6699349,23.7034178 L12.678386,23.7104931 L12.8793402,23.8032389 C12.8914285,23.8068999 12.9022333,23.8029875 12.9078286,23.7952264 L12.9118235,23.7811639 L12.8776777,23.1665331 C12.8752882,23.1545897 12.8674102,23.1470016 12.8583906,23.1452862 L12.8583906,23.1452862 Z M12.1430473,23.1473072 C12.1332178,23.1423925 12.1221763,23.1452606 12.1156365,23.1525954 L12.1099173,23.1665331 L12.0757714,23.7811639 C12.0751323,23.7926639 12.0828099,23.8018602 12.0926481,23.8045676 L12.108256,23.8032389 L12.3092106,23.7104931 L12.3186497,23.7024347 L12.3186497,23.7024347 L12.3225043,23.6906389 L12.340401,23.2611114 L12.337245,23.2485176 L12.337245,23.2485176 L12.3277531,23.2396597 L12.1430473,23.1473072 Z" id="MingCute" fill-rule="nonzero"></path>
                <path d="M19,12 C19.5523,12 20,12.4477 20,13 C20,13.51285 19.613973,13.9355092 19.1166239,13.9932725 L19,14 L16.8907,14 C17.1073,14.3274 17.2822,14.6843 17.4085,15.0632 C18.3612872,17.9217574 16.2991816,20.8716985 13.3247561,20.9959339 L13.1295,21 L11.4276,21 C9.33508148,21 7.41547616,19.8615567 6.40836368,18.0415942 L6.29625,17.8286 L6.11406,17.4642 C6.07774,17.3951 6.04927,17.3211 6.02987,17.2436 C5.99808,17.1175 5.99194,16.9887 6.00918,16.8639 C6.04771,16.5852 6.20307,16.3268 6.44999,16.1647 C6.54553,16.1017 6.65252,16.0546 6.76716,16.0272 C6.88516,15.9989 7.00534,15.9929 7.12218,16.0074 C7.41451,16.043 7.6679,16.2048 7.82628,16.4366 L7.86803875,16.5031625 L7.86803875,16.5031625 L8.08511,16.9342 C8.6864885,18.136995 9.88435633,18.918864 11.216254,18.9940439 L11.4276,19 L13.1295,19 C14.843,19 16.053,17.3213 15.5111,15.6957 C15.32165,15.12717 14.935856,14.647416 14.4264722,14.3400543 L14.2522,14.2441 L13.7639,14 L5,14 C4.44772,14 4,13.5523 4,13 C4,12.48715 4.38604429,12.0644908 4.88337975,12.0067275 L5,12 L19,12 Z M12.5723,3 C14.7453,3 16.7319,4.22775 17.7037,6.17137 L17.8849,6.53388 C17.926,6.61173 17.9572,6.69566 17.9766,6.78396 C18.0345,7.04488 17.984,7.31519 17.8448,7.53528 C17.7729,7.64908 17.6772,7.74945 17.5607,7.82816 C17.4608,7.89591 17.348,7.94607 17.2268,7.97418 C16.9685,8.03452 16.7003,7.98813 16.48,7.85433 C16.3558,7.77888 16.2468,7.67563 16.1634,7.54805 L16.1279125,7.48969875 L16.1279125,7.48969875 L15.9148,7.0658 C15.2818,5.79974 13.9878,5 12.5723,5 L10.8705,5 C9.15693,5 7.94698,6.67873 8.48884,8.30432 C8.69939,8.93596 9.15223,9.45809 9.74775,9.75585 L12.236,11 L8.01262,11 C7.35876,10.4645 6.86299,9.75131 6.59147,8.93677 C5.61792,6.01612 7.79182,3 10.8705,3 L12.5723,3 Z" id="形状" fill="#09244B"></path>
            </g>
        </g>
    </g>
</svg>

<svg xmlns="http://www.w3.org/2000/svg" width="24" height="24"><g fill="none" fill-rule="nonzero"><path d="M24 0v24H0V0h24ZM12.593 23.258l-.011.002-.071.035-.02.004-.014-.004-.071-.035c-.01-.004-.019-.001-.024.005l-.004.01-.017.428.005.02.01.013.104.074.015.004.012-.004.104-.074.012-.016.004-.017-.017-.427c-.002-.01-.009-.017-.017-.018Zm.265-.113-.013.002-.185.093-.01.01-.003.011.018.43.005.012.008.007.201.093c.012.004.023 0 .029-.008l.004-.014-.034-.614c-.003-.012-.01-.02-.02-.022Zm-.715.002a.023.023 0 0 0-.027.006l-.006.014-.034.614c0 .012.007.02.017.024l.015-.002.201-.093.01-.008.004-.011.017-.43-.003-.012-.01-.01-.184-.092Z"/><path fill="#09244B" d="M19 12a1 1 0 0 1 .117 1.993L19 14h-2.11c.217.327.392.684.518 1.063.953 2.859-1.109 5.809-4.083 5.933L13.13 21h-1.702a5.737 5.737 0 0 1-5.02-2.958l-.112-.213-.182-.365a.992.992 0 0 1-.105-.6 1 1 0 0 1 1.817-.427l.042.066.217.431a3.737 3.737 0 0 0 3.131 2.06l.212.006h1.701a2.51 2.51 0 0 0 1.297-4.66l-.174-.096-.488-.244H5a1 1 0 0 1-.117-1.993L5 12h14Zm-6.428-9a5.737 5.737 0 0 1 5.132 3.171l.18.363a1.002 1.002 0 0 1-1.405 1.32.995.995 0 0 1-.316-.306l-.035-.058-.213-.424A3.737 3.737 0 0 0 12.572 5h-1.701a2.51 2.51 0 0 0-1.123 4.756L12.236 11H8.013A4.51 4.51 0 0 1 6.59 8.937C5.618 6.017 7.791 3 10.871 3h1.701Z"/></g></svg>
